packages/calcite-ui-icons/icons/link-chart-connect-between-16.svg

<?xml version="1.0" encoding="UTF-8"?><svg id="icons" xmlns="http://www.w3.org/2000/svg" viewBox="0 0 16 16"><defs><style>.cls-1{fill:none;}</style></defs><path d="M15,13.0921v-3.1842c.58075-.20709,1-.7569,1-1.4079,0-.82715-.67285-1.5-1.5-1.5s-1.5.67285-1.5,1.5c0,.15546.03052.30249.07458.4436l-1.74438,1.30865c-.23798-.15887-.52319-.25226-.8302-.25226-.82715,0-1.5.67285-1.5,1.5s.67285,1.5,1.5,1.5,1.5-.67285,1.5-1.5c0-.15546-.03052-.30249-.07458-.4436l1.74438-1.30865c.10144.06769.2135.11853.3302.16016v3.1842c-.58075.20709-.99.7569-.99,1.4079,0,.82715.66285,1.5,1.49,1.5s1.49-.67285,1.49-1.5c0-.651-.40925-1.20081-.99-1.4079ZM15,15h-1v-1h1v1ZM9.5,2h-.5v-1h.5c1.37842,0,2.5,1.12109,2.5,2.5v.5h1.17603l-1.67603,2.05817-1.67603-2.05817h1.17603v-.5c0-.82715-.67285-1.5-1.5-1.5ZM3,4.5c0,.82715-.67285,1.5-1.5,1.5s-1.5-.67285-1.5-1.5.67285-1.5,1.5-1.5,1.5.67285,1.5,1.5ZM7,1.5c0-.82715-.67285-1.5-1.5-1.5s-1.5.67285-1.5,1.5c0,.651.41925,1.20081,1,1.4079v3.1842c-.58075.20709-.99.7569-.99,1.4079,0,.82715.66285,1.5,1.49,1.5s1.49-.67285,1.49-1.5c0-.651-.40925-1.20081-.99-1.4079v-3.1842c.58075-.20709,1-.7569,1-1.4079ZM6,8h-1v-1h1v1Z"/><rect class="cls-1" width="16" height="16"/></svg>

<svg xmlns="http://www.w3.org/2000/svg" viewBox="0 0 16 16"><path d="M15 13.092V9.908c.58-.207 1-.757 1-1.408 0-.827-.673-1.5-1.5-1.5S13 7.673 13 8.5c0 .155.03.302.075.444l-1.745 1.308A1.502 1.502 0 0 0 9 11.5c0 .827.673 1.5 1.5 1.5s1.5-.673 1.5-1.5c0-.155-.03-.302-.075-.444l1.745-1.308c.101.067.213.118.33.16v3.184a1.49 1.49 0 0 0-.99 1.408c0 .827.663 1.5 1.49 1.5s1.49-.673 1.49-1.5c0-.651-.41-1.2-.99-1.408zM15 15h-1v-1h1v1zM9.5 2H9V1h.5C10.878 1 12 2.121 12 3.5V4h1.176L11.5 6.058 9.824 4H11v-.5c0-.827-.673-1.5-1.5-1.5zM3 4.5C3 5.327 2.327 6 1.5 6S0 5.327 0 4.5.673 3 1.5 3 3 3.673 3 4.5zm4-3C7 .673 6.327 0 5.5 0S4 .673 4 1.5c0 .651.42 1.2 1 1.408v3.184A1.49 1.49 0 0 0 4.01 7.5c0 .827.663 1.5 1.49 1.5s1.49-.673 1.49-1.5c0-.651-.41-1.2-.99-1.408V2.908A1.5 1.5 0 0 0 7 1.5zM6 8H5V7h1v1z"/><path fill="none" d="M0 0h16v16H0z"/></svg>
